icons/production/twitter.svg

<?xml version="1.0" encoding="UTF-8" standalone="no"?>
<svg width="24px" height="24px" viewBox="0 0 24 24" version="1.1" xmlns="http://www.w3.org/2000/svg">
<!--Generator: Sketch 3.8.3 (29802) - http://www.bohemiancoding.com/sketch-->
    <title>
        twitter
    </title>
    <desc>
        Created with Sketch.
    </desc>
    <g id="Page-1" stroke="none" stroke-width="1" fill="none" fill-rule="evenodd">
        <path d="M22,5.89400471 C21.2641892,6.21527529 20.4733073,6.43239529 19.6434167,6.53002353 C20.4904214,6.03012706 21.1411397,5.23856941 21.4474726,4.29532235 C20.6545829,4.75824941 19.7765051,5.09438118 18.8418265,5.27548235 C18.0933952,4.49046588 17.0270623,4 15.8468584,4 C13.5808173,4 11.7434892,5.80844235 11.7434892,8.03910588 C11.7434892,8.35567059 11.7798208,8.66396235 11.849807,8.95962353 C8.43960682,8.79115294 5.41610886,7.18308706 3.3923805,4.73930353 C3.0391607,5.33585882 2.83681272,6.02970353 2.83681272,6.76996706 C2.83681272,8.17133176 3.56117909,9.40765176 4.66220871,10.1320471 C3.98965314,10.1109647 3.35688068,9.92931765 2.80371271,9.62678588 C2.80332071,9.64366118 2.80332071,9.66051765 2.80332071,9.67755294 C2.80332071,11.6346353 4.21772008,13.2671059 6.09478345,13.6382118 C5.75049358,13.7305412 5.38799011,13.7799529 5.01377446,13.7799529 C4.74937591,13.7799529 4.49232973,13.7545412 4.24174675,13.7074824 C4.76391812,15.3120941 6.27925245,16.48 8.07480871,16.5124706 C6.67051527,17.5959529 4.90127075,18.2416941 2.97881198,18.2416941 C2.64761105,18.2416941 2.32099939,18.2224941 2,18.1851294 C3.81587328,19.3312 5.97270922,20 8.28989188,20 C15.8372019,20 19.9644734,13.8451765 19.9644734,8.50746353 C19.9644734,8.33236706 19.9604578,8.15816471 19.9525222,7.98489412 C20.7543036,7.41539765 21.4499585,6.70401882 22,5.89400471 L22,5.89400471 Z" id="twitter" fill="#000"/>
    </g>
</svg>

<svg xmlns="http://www.w3.org/2000/svg" viewBox="0 0 24 24">
    <path fill-rule="evenodd" d="M22 5.894a8.304 8.304 0 0 1-2.357.636 4.064 4.064 0 0 0 1.804-2.235 8.25 8.25 0 0 1-2.605.98A4.128 4.128 0 0 0 15.847 4c-2.266 0-4.104 1.808-4.104 4.04 0 .316.037.624.107.92a11.711 11.711 0 0 1-8.458-4.22 3.972 3.972 0 0 0-.555 2.03 4.02 4.02 0 0 0 1.825 3.362 4.138 4.138 0 0 1-1.858-.505v.05c0 1.958 1.414 3.59 3.29 3.961a4.169 4.169 0 0 1-1.852.07c.522 1.604 2.037 2.772 3.833 2.804a8.315 8.315 0 0 1-5.096 1.73A8.55 8.55 0 0 1 2 18.185 11.748 11.748 0 0 0 8.29 20c7.547 0 11.674-6.155 11.674-11.493 0-.175-.004-.349-.011-.522A8.265 8.265 0 0 0 22 5.894z"/>
</svg>
